src/renderer/assets/svg/logo-asgardex.svg

<svg id="asgardex_logo" width="196" height="55" viewBox="0 0 196 55" fill="none" xmlns="http://www.w3.org/2000/svg">
<path fill-rule="evenodd" clip-rule="evenodd" d="M24.5443 27.3278L32.3897 27.2994L28.4916 20.4908L31.6422 15.0339L41.8027 32.7713L21.3614 32.8407L24.5443 27.3278Z" fill="#303942"/>
<path fill-rule="evenodd" clip-rule="evenodd" d="M24.0604 26.692L20.1623 33.5006L28.0077 33.529L31.1583 38.9859L10.7171 38.9165L20.8776 21.1792L24.0604 26.692Z" fill="#303942"/>
<path fill-rule="evenodd" clip-rule="evenodd" d="M24.6798 26.4923L20.7325 19.7121L16.7851 26.4923L10.484 26.4923L20.7648 8.82431L31.0455 26.4923L24.6798 26.4923ZM41.7582 44.9026L41.7582 44.9025L41.7582 44.9026L41.7582 44.9026Z" fill="#303942"/>
<path d="M59.704 28.3489H53.56L52.192 33.0289H49.12L54.088 17.2609C54.232 16.7329 54.592 16.4689 55.168 16.4689H58.096C58.672 16.4689 59.032 16.7329 59.176 17.2609L64.144 33.0289H61.072L59.704 28.3489ZM58.984 25.8769L57.328 20.1649C57.104 19.3009 56.984 18.8289 56.968 18.7489H56.32L55.936 20.1649L54.28 25.8769H58.984ZM73.5818 26.4769L70.2458 25.4209C69.0458 25.0369 68.1898 24.4609 67.6778 23.6929C67.1658 22.9089 66.9098 21.8849 66.9098 20.6209C66.9098 18.8129 67.3258 17.6209 68.1578 17.0449C69.0058 16.4689 70.4858 16.1809 72.5978 16.1809C74.6298 16.1809 76.3658 16.3649 77.8058 16.7329L77.6138 18.8689C75.7898 18.8049 74.1498 18.7729 72.6938 18.7729C71.5898 18.7729 70.8538 18.8849 70.4858 19.1089C70.1178 19.3169 69.9338 19.8369 69.9338 20.6689C69.9338 21.3569 70.0618 21.8449 70.3178 22.1329C70.5898 22.4049 71.0778 22.6529 71.7818 22.8769L74.9738 23.8609C76.2378 24.2609 77.1178 24.8529 77.6138 25.6369C78.1258 26.4049 78.3818 27.4209 78.3818 28.6849C78.3818 30.5089 77.9498 31.7409 77.0858 32.3809C76.2218 33.0049 74.6938 33.3169 72.5018 33.3169C70.6778 33.3169 68.8858 33.1409 67.1258 32.7889L67.3178 30.5809C70.1178 30.6449 71.8698 30.6769 72.5738 30.6769C73.6778 30.6769 74.4138 30.5489 74.7818 30.2929C75.1498 30.0369 75.3338 29.4929 75.3338 28.6609C75.3338 27.9569 75.2058 27.4689 74.9498 27.1969C74.7098 26.9249 74.2538 26.6849 73.5818 26.4769ZM94.7693 23.4769V33.0289H92.5373L92.2733 31.3969C90.8973 32.6929 89.2813 33.3409 87.4253 33.3409C85.6013 33.3409 84.2813 32.6529 83.4653 31.2769C82.6493 29.8849 82.2413 27.6849 82.2413 24.6769C82.2413 21.4129 82.7693 19.1809 83.8253 17.9809C84.8813 16.7649 86.7693 16.1569 89.4893 16.1569C91.3293 16.1569 92.9133 16.3409 94.2413 16.7089L94.0013 18.9409C92.4493 18.8449 90.9933 18.7969 89.6333 18.7969C88.7693 18.7969 88.0973 18.8609 87.6173 18.9889C87.1373 19.1009 86.7133 19.3729 86.3453 19.8049C85.9773 20.2209 85.7213 20.8289 85.5773 21.6289C85.4493 22.4129 85.3853 23.4849 85.3853 24.8449C85.3853 27.0689 85.6013 28.6129 86.0333 29.4769C86.4653 30.3249 87.2413 30.7489 88.3613 30.7489C89.4333 30.7489 90.5933 30.3649 91.8413 29.5969V23.4769H94.7693ZM108.384 28.3489H102.24L100.872 33.0289H97.7997L102.768 17.2609C102.912 16.7329 103.272 16.4689 103.848 16.4689H106.776C107.352 16.4689 107.712 16.7329 107.856 17.2609L112.824 33.0289H109.752L108.384 28.3489ZM107.664 25.8769L106.008 20.1649C105.784 19.3009 105.664 18.8289 105.648 18.7489H105L104.616 20.1649L102.96 25.8769H107.664ZM128.67 33.0289H125.478L124.158 27.8929C123.854 26.9009 123.214 26.4049 122.238 26.4049L119.262 26.3809V33.0289H116.286V16.4689C117.71 16.3249 119.718 16.2529 122.31 16.2529C124.406 16.2529 125.886 16.6049 126.75 17.3089C127.63 17.9969 128.07 19.2609 128.07 21.1009C128.07 22.3809 127.83 23.3649 127.35 24.0529C126.87 24.7249 126.078 25.1329 124.974 25.2769V25.3969C125.454 25.5089 125.902 25.7649 126.318 26.1649C126.734 26.5649 127.022 27.1249 127.182 27.8449L128.67 33.0289ZM119.262 23.9329H122.238C123.31 23.9169 124.038 23.7249 124.422 23.3569C124.822 22.9889 125.022 22.3009 125.022 21.2929C125.022 20.2849 124.822 19.6049 124.422 19.2529C124.038 18.9009 123.31 18.7249 122.238 18.7249H119.262V23.9329ZM132.879 33.0289V16.4689C135.071 16.3249 137.135 16.2529 139.071 16.2529C141.583 16.2529 143.335 16.8689 144.327 18.1009C145.335 19.3329 145.839 21.5489 145.839 24.7489C145.839 27.9489 145.335 30.1649 144.327 31.3969C143.335 32.6289 141.583 33.2449 139.071 33.2449C137.135 33.2449 135.071 33.1729 132.879 33.0289ZM135.879 18.7729V30.6769C137.127 30.7089 138.191 30.7249 139.071 30.7249C140.447 30.7249 141.391 30.3009 141.903 29.4529C142.415 28.5889 142.671 27.0209 142.671 24.7489C142.671 22.4769 142.407 20.9089 141.879 20.0449C141.367 19.1809 140.431 18.7489 139.071 18.7489C138.639 18.7489 138.071 18.7569 137.367 18.7729C136.679 18.7729 136.183 18.7729 135.879 18.7729ZM161.041 30.6049L161.185 32.8849C159.729 33.0129 157.297 33.0769 153.889 33.0769C152.801 33.0769 151.937 32.7969 151.297 32.2369C150.673 31.6769 150.353 30.9089 150.337 29.9329V19.5649C150.353 18.5889 150.673 17.8209 151.297 17.2609C151.937 16.7009 152.801 16.4209 153.889 16.4209C157.297 16.4209 159.729 16.4849 161.185 16.6129L161.041 18.9169H154.561C154.129 18.9169 153.817 19.0209 153.625 19.2289C153.449 19.4369 153.361 19.7969 153.361 20.3089V23.2129H160.153V25.5169H153.361V29.2129C153.361 29.7249 153.449 30.0849 153.625 30.2929C153.817 30.5009 154.129 30.6049 154.561 30.6049H161.041ZM171.501 25.5409H171.045L167.349 33.0289H164.181L168.573 24.5089L164.493 16.4689H167.637L171.021 23.3809H171.525L174.909 16.4689H178.077L173.973 24.5089L178.389 33.0289H175.197L171.501 25.5409Z" fill="#303942"/>
</svg>

<svg xmlns="http://www.w3.org/2000/svg" width="196" height="55" fill="none" viewBox="0 0 196 55"><path fill="#303942" fill-rule="evenodd" d="m24.544 27.328 7.846-.029-3.898-6.808 3.15-5.457 10.16 17.737-20.44.07z" clip-rule="evenodd"/><path fill="#303942" fill-rule="evenodd" d="m24.06 26.692-3.898 6.809 7.846.028 3.15 5.457-20.44-.07 10.16-17.737z" clip-rule="evenodd"/><path fill="#303942" fill-rule="evenodd" d="m24.68 26.492-3.947-6.78-3.948 6.78h-6.301l10.28-17.668 10.282 17.668zm17.078 18.41" clip-rule="evenodd"/><path fill="#303942" d="M59.704 28.349H53.56l-1.368 4.68H49.12l4.968-15.768c.144-.528.504-.792 1.08-.792h2.928c.576 0 .936.264 1.08.792l4.968 15.768h-3.072zm-.72-2.472-1.656-5.712a69.94 69.94 0 0 1-.36-1.416h-.648l-.384 1.416-1.656 5.712zm14.598.6-3.336-1.056c-1.2-.384-2.056-.96-2.568-1.728-.512-.784-.768-1.808-.768-3.072 0-1.808.416-3 1.248-3.576.848-.576 2.328-.864 4.44-.864 2.032 0 3.768.184 5.208.552l-.192 2.136a141.65 141.65 0 0 0-4.92-.096c-1.104 0-1.84.112-2.208.336-.368.208-.552.728-.552 1.56 0 .688.128 1.176.384 1.464.272.272.76.52 1.464.744l3.192.984c1.264.4 2.144.992 2.64 1.776.512.768.768 1.784.768 3.048 0 1.824-.432 3.056-1.296 3.696-.864.624-2.392.936-4.584.936-1.824 0-3.616-.176-5.376-.528l.192-2.208c2.8.064 4.552.096 5.256.096 1.104 0 1.84-.128 2.208-.384.368-.256.552-.8.552-1.632 0-.704-.128-1.192-.384-1.464-.24-.272-.696-.512-1.368-.72m21.187-3v9.552h-2.232l-.264-1.632c-1.376 1.296-2.992 1.944-4.848 1.944-1.824 0-3.144-.688-3.96-2.064-.816-1.392-1.224-3.592-1.224-6.6 0-3.264.528-5.496 1.584-6.696 1.056-1.216 2.944-1.824 5.664-1.824 1.84 0 3.424.184 4.752.552l-.24 2.232a70.977 70.977 0 0 0-4.368-.144c-.864 0-1.536.064-2.016.192-.48.112-.904.384-1.272.816-.368.416-.624 1.024-.768 1.824-.128.784-.192 1.856-.192 3.216 0 2.224.216 3.768.648 4.632.432.848 1.208 1.272 2.328 1.272 1.072 0 2.232-.384 3.48-1.152v-6.12zm13.615 4.872h-6.144l-1.368 4.68H97.8l4.968-15.768c.144-.528.504-.792 1.08-.792h2.928c.576 0 .936.264 1.08.792l4.968 15.768h-3.072zm-.72-2.472-1.656-5.712a69.94 69.94 0 0 1-.36-1.416H105l-.384 1.416-1.656 5.712zm21.006 7.152h-3.192l-1.32-5.136c-.304-.992-.944-1.488-1.92-1.488l-2.976-.024v6.648h-2.976v-16.56c1.424-.144 3.432-.216 6.024-.216 2.096 0 3.576.352 4.44 1.056.88.688 1.32 1.952 1.32 3.792 0 1.28-.24 2.264-.72 2.952-.48.672-1.272 1.08-2.376 1.224v.12c.48.112.928.368 1.344.768.416.4.704.96.864 1.68zm-9.408-9.096h2.976c1.072-.016 1.8-.208 2.184-.576.4-.368.6-1.056.6-2.064s-.2-1.688-.6-2.04c-.384-.352-1.112-.528-2.184-.528h-2.976zm13.617 9.096v-16.56a94.724 94.724 0 0 1 6.192-.216c2.512 0 4.264.616 5.256 1.848 1.008 1.232 1.512 3.448 1.512 6.648 0 3.2-.504 5.416-1.512 6.648-.992 1.232-2.744 1.848-5.256 1.848-1.936 0-4-.072-6.192-.216m3-14.256v11.904c1.248.032 2.312.048 3.192.048 1.376 0 2.32-.424 2.832-1.272.512-.864.768-2.432.768-4.704s-.264-3.84-.792-4.704c-.512-.864-1.448-1.296-2.808-1.296-.432 0-1 .008-1.704.024zm25.162 11.832.144 2.28c-1.456.128-3.888.192-7.296.192-1.088 0-1.952-.28-2.592-.84-.624-.56-.944-1.328-.96-2.304V19.565c.016-.976.336-1.744.96-2.304.64-.56 1.504-.84 2.592-.84 3.408 0 5.84.064 7.296.192l-.144 2.304h-6.48c-.432 0-.744.104-.936.312-.176.208-.264.568-.264 1.08v2.904h6.792v2.304h-6.792v3.696c0 .512.088.872.264 1.08.192.208.504.312.936.312zm10.46-5.064h-.456l-3.696 7.488h-3.168l4.392-8.52-4.08-8.04h3.144l3.384 6.912h.504l3.384-6.912h3.168l-4.104 8.04 4.416 8.52h-3.192z"/></svg>
